X:1
T:Title
%%score ( 1 2 ) ( 3 4 )
L:1/8
Q:1/4=110
M:4/4
K:F
V:1 treble nm="Choir Aahs, Staff"
V:2 treble 
V:3 bass nm="Choir Aahs, Staff-1"
V:4 bass 
V:1
 [CF]2 [CF]2 [G,E]2 [CF]2 | [B,D]2 C2 [=B,D]2 [_B,E]2 | [A,F]2 [CG]2 [FA]2 [Fc]2 | %3
w: By~Samuel~Sebastian~Wesley * * *|||
 [Fd]2 [Fd]2 [Fc]4 | [Fc]2 AG F2 [CG]2 | [FA]2 [FB]2 [FA]2 [EG]2 | E2 [DG]2 [Gc]2 [^Fd]2 | %7
w: ||||
 [Ge]2 d-[Fd] [Ec]4 | [CF]2 [CF]2 [CE]2 [A,F]2 | [B,D]2 C2 [=B,D]2 [_B,E]2 | %10
w: |||
 [A,F]2 [DG]2 [^CA]2 [A,E]2 | [=B,E]2 [B,E]2 [^CE]4 | [Cc]2 [EA]2 [DG]2 [DA]2 | %13
w: |||
 [DB]2 [GB][FA] [FA]2 [EG]2 | z4 B2 z2 | [FG]2 [EG]2 F4 |] %16
w: |||
V:2
 x8 | x8 | x8 | x8 | z2 E2 z4 | x8 | x8 | z2 .G2 z4 | x8 | x8 | x8 | x8 | x8 | x8 | %14
 [Fcf]2 [Ad]2 DE [FA]2 | x8 |] %16
V:3
 [F,A,]2 [F,A,]2 [F,B,]2 [F,A,]2 | [B,,F,]2 [A,,F,]2 [G,,F,]2 C,2 | [D,F,]2 [E,C]2 [F,C]2 [A,,C]2 | %3
 [B,,C]2 [D,B,]2 [F,A,]4 | [A,,C]2 CB, [D,A,]2 [E,C]2 | [F,C]2 [B,D]2 C2 C2 | %6
 C2 =B,-[F,B,] [E,C]2 [A,C]2 | [G,C]2 [G,,=B,]2 [C,G,]4 | [F,A,]2 [F,A,]2 [C,G,]2 [D,F,]2 | %9
 [B,,F,]2 [A,,F,]2 [G,,F,]2 C,2 | z2 .E,2 z4 | [E,A,]2 [E,_A,]2 [A,,=A,]4 | %12
 [A,,E,]2 [C,A,]2 [D,B,]2 [D,^F,]2 | G,2 [B,D]2 C2 C2 | [A,C]2 [F,A,]2 [G,D]2 D-[C,D] | %15
 [B,,D]2 CB, [F,A,]4 |] %16
V:4
 x8 | x8 | x8 | x8 | z2 C,2 z4 | x8 | z2 .G,2 z4 | x8 | x8 | x8 | %10
 [D,F,]2 B,,-[B,,D,] [A,,E,]2 [^C,A,]2 | x8 | x8 | x8 | z4 z2 .D,2 | z2 C,2 z4 |] %16

